X:54
T:Lull Me Beyond Thee
C:John Playford, The English Dancing Master, 1651
N:arr. Steve Hendricks. Matches Pile 46
P:A BB x 3
M:6/4
L:1/8
K:A minor
E2 | \
P:A
"Am"E4E2 c3Bc2 | "Dm"d3cd2 "E"e4E2 | "Am"E4E2 c3BA2 | "E"^G6 "A"A4 ::\
P:B
"Am"A2 | "Am"c4c2 "Dm"d3cd2 | "C"e3fe2 "G"d4G2 | 
"C"c4c2 "G"d3cd2 | "C"e6 "G"d4d2 | "C"e3fe2 "G"d3cB2 | "Am"c3BA2 "E"e4E2 | "Am"E4E2 c3BA2 | "E"^G6 "A"A4 :| 

